!!!COM: Schubert, Franz
!!!CDT: 1797/01/31/-1828/11/19/
!!!CNT: Austrian
!!!OTL: Trio for violin, viola and violon cello
!!!ODT: 1816/09//
**kern
*staff3
*Icello
*>[A,A,B,B]
*>norep[A,B]
*>A
*clefF4
*k[b-e-]
*met(C)
*M4/4
*MM160
=1-
[1B-
.
.
.
.
.
.
.
=2
(2.B-\]
.
.
.
.
.
4A\)
.
=3
4G'\
.
4B-'\
.
4d'\
.
4En'\
.
=4
4F\
.
4r
.
4FF/
.
4r
.
=5
[1B-
.
.
.
.
.
.
.
=6
(2.B-\]
.
.
.
.
.
4A\)
.
=7
4G\
.
4B-'\
.
4d'\
.
4En'\
.
=8
4F\
.
4r
.
4FF/
.
4r
.
=9
4BB-'/
4D'\
4F'\
4r
=10
4D\
(8.F\L
32En\LL
32F\JJJ)
4B-\
4r
=11
(2B-\
.
.
.
.
.
4A\)
.
.
4e-\
.
.
=12
4BB-'/
4D'\
4F'\
4r
=13
4D\
(8.F\L
32En\LL
32F\JJJ)
4B-\
4r
=14
(2d\
.
.
.
.
.
4e-\
.
.
4A\)
.
.
=15
4B-\
.
4r
.
4r
.
*clefC4
4B-\
.
=16
(1a-
.
.
.
.
.
.
.
=17
(2.g\)
.
.
.
.
.
4f\)
.
=18
2e-\
.
.
.
2f\
.
.
.
.
=19
2g\
.
.
.
4r
.
4B-\
.
=20
(1a-
.
.
.
.
.
.
.
=21
(2g\)
.
.
.
4g-\
.
4f\)
.
=22
2e-\
.
.
.
(2en\
.
.
.
=23
4f\)
.
4r
.
4r
(4d\
=24
4d-\
4c\
4B-\)
(4En/
=25
4F/)
.
4r
.
4r
(4A/
=26
*clefF4
4D-/
4C/
4BB-/)
(4EEn/
=27
4FF/)
4r
2r
=28
1r
.
.
.
=29
4r
(4f\
4c\
4A\)
=30
8G\
8r
.
(4g'\
.
4g'\
.
4g'\)
.
=31
4g\
4r
2r
.
.
.
.
.
.
=32
2r
.
([4d\
24d\LL]
24c\
24B-\
24A\
24G\
24F\JJ)
=33
4En'\
4r
2r
.
=34
4r
(4g\
4en\
4B-\)
=35
8A\
8r
.
*clefC4
(4a'\
.
4a'\
.
4a'\)
.
=36
4a\
4r
2r
.
.
.
.
.
=37
2r
.
*clefF4
([4F\
32F/LLL]
32En/
32D/
32C/
32BB-/
32AA/
32GG/
32FF/JJJ)
=38
4EE-/
.
(4E-'\
.
4E-'\
.
4E-'\)
.
=39
(8DD/L
8FF/)
8BB-'/
8D'/J
(8F\L
8B-\)
8d'\
8D'\J
=40
4c\
.
4r
.
4C/
.
4r
.
=41
4F\
.
4r
.
.
.
4r
.
.
.
4F\
.
=42
(2En\
.
.
.
.
4G\
.
4B-\)
.
=43
(4B-\
.
8A\)
8r
Fq/LL
Gq/JJ
4A'\
.
(Fq/LL
Gq/JJ
4A'\)
.
=44
(4.B-\
.
.
16c\LL
16B-\JJ
8A\L
8G\
8F\
8En\J)
=45
(4G\
.
8F\)
8r
(2d\
.
.
=46
2G\)
.
.
(2c\
.
.
=47
(4F\)
4F#\)
.
.
(4G\
.
8A\L
&(8B-\J&))
=48
4c\
.
4r
.
4C/
.
4r
.
=49
4F\
.
4r
.
.
.
4r
.
.
.
4F\
.
=50
(2En\
.
.
.
.
4G\
.
4B-\)
.
=51
(4B-\
.
8A\)
8r
Fq/LL
Gq/JJ
4A'\
.
Fq/LL
Gq/JJ
4A'\
.
=52
(4.B-\
.
.
16c\LL
16B-\JJ
8A\L
8G\
8F\
8En\J)
=53
(4G\
.
8F\)
8r
(2d\
.
.
=54
2G\)
.
.
(2c\
.
.
=55
(4F\)
4F#\)
.
.
(4G\
.
8A\L
8B-\J)
=56
4c\
.
4r
.
4C/
.
4r
.
=57
4F\
.
.
4r
.
.
12f\L
12f\
12f\J
12en\L
12e\
12e\J
=58
12d\L
12d\
12d\J
12cn\L
12c\
12c\J
12B-\L
12B-\
12B-\J
12F#\L
12F#\
12F#\J
=59
8G\
8r
4r
.
.
8en\
8r
4r
.
=60
4f^\
.
8f'\L
8f'\J
.
.
(8f^\L
8en\J)
4r
.
=61
4f^\
.
8f\L
8f\J
.
.
(8f\L
8en\J)
4r
.
=62
4f\
.
8f#'\L
8f#'\J
(8f#^\L
8g\J)
8e-'\L
8e-'\J
=63
(8e-^\L
8d\J)
8f#'\L
8f#'\J
(8f#^\L
8g\J)
8e-'\L
8e-'\J
=64
(8e-\L
8d\J)
8e-'\L
8e-'\J
(8e-\L
8d\J)
8e-'\L
8e-'\J
=65
(2.e-\
4A\)
=66
4B-\
4r
4r
8Bn\L
8B\J
=67
4c\
.
4r
4C/
.
4r
=68
(4FF/
4AA/
.
4C/
.
4F\)
=69
(4G-\
4D-\
.
4BB-/
.
4GG-/)
=70
(4FF/
4AA/
.
4C/
.
4F\)
=71
(4G-\
4D-\
.
4BB-/
.
4GG-/)
=72
[1FF
.
.
=73
2FF/]
2r
=74:|!|:
*>B
(1D
.
.
=75
2E-\)
2r
=76
[1E-
.
.
=77
1E-]
.
.
=78
(2E-\
4F\
4G\)
.
=79
2A-\
.
4r
(4G-\
=80
[1F)
.
.
=81
1F]
.
.
=82
(2F\
4G\
4An\)
.
=83
4B-\
(4d-\
4c\
4B-\)
=84
8A-\L
8A-\
8A-\
8A-\J
8A-\L
8A-\
8A-\
8A-\J
=85
8A-\L
8A-\
8A-\
8A-\J
8A-\L
8A-\
8A-\
8A-\J
=86
8A-\L
8A-\
8A-\
8A-\J
8B-\L
8B-\
8c\
8c\J
=87
(2.An\
.
8c\L
8B-\J)
=88
2B-\
2r
.
.
=89
(2.B-\
.
8d-\L
8c\J)
=90
2c\
2r
.
.
*clefC4
=91
(2.c\
.
8e-\L
8d-\J)
=92
4d-\
4r
.
(4dn^\
8f\L
8e-\J)
=93
4e-\
4r
.
(4en^\
8g\L
8f\J)
=94
4f\
4r
.
(4f#^\
8an\L
8g\J)
=95
4g\
4r
.
(4g^\
8a\L
8g\J)
=96
4fn\
4r
.
(4f^\
8g\L
8f\J)
=97
4e-\
4r
.
(4e-^\
8f\L
8e-\J)
=98
4d\
4r
.
(4d^\
8e-\L
8d\J)
=99
(2c\
.
.
2B-\
.
.
=100
2A\
.
.
2G/)
.
.
*clefF4
=101
(4F#\
8G\L
8F#\J)
2G\
.
.
=102
(4F#\
8G\L
8F#\J)
2G\
.
.
=103
(4D\
8E-\L
8D\J)
2E-\
.
.
=104
(4D\
8E-\L
8D\J)
2E-\
.
.
=105
2D\
2r
.
.
=106
1r
.
.
.
=107
(1c
.
.
.
.
.
.
.
=108
1B-)
.
.
.
.
.
.
.
=109
(1A
.
.
.
.
.
.
.
=110
1B-)
.
.
.
.
.
.
.
=111
(1c
.
.
.
.
.
.
.
=112
1B-)
.
.
.
.
.
.
.
=113
(1e-
.
.
.
.
.
.
.
=114
1d)
.
.
.
.
.
.
.
=115
(1A
.
.
.
.
.
.
.
=116
1B-)
.
.
.
.
.
.
.
=117
(1e-
.
.
.
.
.
.
.
=118
1d)
.
.
.
.
.
.
.
=119
(1A
.
.
.
.
.
.
.
=120
1B-)
.
.
.
.
.
.
.
=121
(2e-\
.
(2f\)
.
=122
(2e-\)
.
2f\)
.
=123
(2e-\
.
2en\)
.
*clefC4
=124
(2f\
.
2g\
.
=125
2a\
.
2g\)
.
=126
[1f
.
.
.
.
=127
2f\]
2r
.
.
.
*clefF4
=128
[1B-
.
.
.
.
.
.
.
=129
(2.B-\]
.
.
.
.
.
4A\)
.
=130
4G'\
.
4B-'\
.
4d'\
.
4En\
.
=131
4F\
.
4r
.
4FF/
.
4r
.
=132
[1B-
.
.
.
.
.
.
.
=133
(2.B-\]
.
.
.
.
.
4A\)
.
=134
4G'\
.
4B-'\
.
4d'\
.
4En'\
.
=135
4F\
.
4r
.
4FF/
.
4r
.
=136
4BB-'/
4D'\
4F'\
4r
=137
4D\
(8.F\L
32En\LL
32F\JJJ)
4B-\
4r
=138
(2B-\
.
.
.
.
.
4A\)
.
.
4e-\
.
.
=139
4BB-'/
4D'\
4F'\
4r
=140
4D\
(8.F\L
32En\LL
32F\JJJ)
4A-\
4r
=141
[1BB-
.
.
.
.
.
.
.
.
.
.
.
=142
1BB-]
.
.
.
.
.
.
.
.
.
.
.
=143
4E-\
.
4r
.
4r
.
4E-\
.
=144
(1d-
.
.
.
.
.
.
.
=145
(2.c\)
.
.
.
.
.
4B-\)
.
=146
2A-\
.
.
.
2B-\
.
.
.
.
=147
2c\
.
.
.
4r
.
4E-\
.
=148
(1d-
.
.
.
.
.
.
.
=149
(2c\)
.
.
.
4c-\
.
4B-\)
.
=150
2A-\
.
.
.
(2An\
.
.
.
=151
4B-\)
.
4r
.
4r
(4g\
=152
4g-\
4f\
4e-\
4An\
=153
4B-\)
.
4r
.
4r
(4G\
=154
4G-\
4F\
4E-\
4AAn/
=155
4BB-/)
4r
2r
=156
1r
.
.
.
=157
4r
(4B-\
4F\
4D\)
=158
8C/
8r
.
(4c'\
.
4c'\
.
4c'\)
.
=159
4c\
4r
2r
.
.
.
.
.
.
=160
2r
.
.
([4G\
24G\LL]
24F\
24E-\
24D\
24C\
24BB-\JJ)
=161
8AA/
8r
4r
2r
.
=162
4r
(4c\
4A\
4E-\)
=163
8D\
8r
.
(4d'\
.
4d'\
.
4d'\)
.
=164
4d\
4r
2r
.
.
.
.
.
=165
2r
.
.
([4B-\
32B-\LLL]
32A\
32G\
32F\
32E-\
32D\
32C\
32BB-\JJJ)
=166
4AA-/
.
(4A-'\
.
4A-'\
.
4A-'\)
.
=167
(8GG/L
8BB-/)
8E-'/
8G'/J
(8B-\L
8e-\)
8g'\
8G'\J
=168
4F\
.
4r
.
4FF/
.
4r
.
=169
4BB-/
.
4r
.
.
.
4r
.
.
.
4B-\
.
=170
(2A\
.
.
.
.
4c\
.
4e-\)
.
=171
2d\
.
.
.
(B-q/LLL
cq/JJJ)
4d'\
.
(B-q/LLL
cq/JJJ)
4d'\
.
=172
(4.e-\
.
.
16f\LL
16e-\JJ
8d\L
8c\
8B-\
8A\J)
=173
(4c\
.
8B-\)
8r
(2G\
.
.
=174
2C/)
.
.
(2F\
.
.
=175
(4BB-/)
4BBn/)
.
.
(4C/
.
8D\L
8E-\J)
=176
4F\
.
4r
.
4FF/
.
4r
.
=177
4BB-/
.
4r
.
.
.
4r
.
.
.
4B-\
.
=178
(2A\
.
.
.
.
4c\
.
4e-\)
.
=179
2d\
.
.
.
(B-q/LLL
cq/JJJ
4d'\)
.
(B-q/LLL
cq/JJJ)
4d'\
.
=180
(4.e-\
.
.
16f\LL
16e-\JJ
8d\L
8c\
8B-\
8A\J)
=181
(4c\
.
8B-\)
8r
(2G\
.
.
=182
2C/)
.
.
(2F\
.
.
=183
(4BB-/)
4BBn/)
.
.
(4C/
.
8D\L
8E-\J)
=184
4F\
.
4r
.
4FF/
.
4r
.
=185
4BB-/
.
.
.
4r
.
.
12d\L
12d\
12d\J
12d\L
12d\
12d\J
=186
12e-\L
12e-\
12e-\J
12f\L
12f\
12f\J
12e-\L
12e-\
12e-\J
12Bn\L
12B\
12B\J
=187
8c\
8r
4r
.
.
4An\
4r
.
=188
4B-\
.
8B-'\L
8B-'\J
.
.
(8B-\L
8A\J)
4r
.
=189
4B-\
.
8B-'\L
8B-'\J
.
.
(8B-\L
8A\J)
4r
.
*clefC4
=190
4b-\
.
8bn'\L
8b'\J
(8b^\L
8cc\J)
8a-'\L
8a-'\J
=191
(8a-^\L
8g\J)
8bn'\L
(8b'\J
8b^\L
8cc\J)
8a-'\L
8a-'\J
=192
(8a-^\L
8g\J)
8a-'\L
8a-'\J
(8a-^\L
8g\J)
8a-'\L
8a-'\J
=193
(2.a-\
4d\)
=194
4e-\
4r
4r
8en'\L
8e'\J
=195
4f\
.
4r
4F/
.
4r
*clefF4
=196
(4BB-/
4D\
.
4F\
.
4B-\)
=197
(4c-\
4G-\
.
4E-\
.
4C-/)
=198
(4BB-/
4D\
.
4F\
.
4B-\)
=199
(4c-\
4G-\
.
4E-\
.
4C-/)
=200
[1BB-
.
.
=201
2BB-/]
2r
=
*-
!!!ENC: Craig Stuart Sapp
!!!END: 2005/08/03/
